X: 21031
T: Jump At The Sun
R: jig
M: 6/8
K: Gminor
|:GBd ^c2 d|GBd ^c2 d|gdd gdd|dcB A3|
GBd ^c2 d|GBd ^c2 d|gdd edc|BcA G3:|
|:g2 g bag|add c’ba|bag bag|add e2 d|
g2 g bag|add c’ba|gdd edc|BcA G3:|

